icons/link-outlined-12px.svg

<svg width="12" height="12" viewBox="0 0 12 12" fill="none" xmlns="http://www.w3.org/2000/svg"><g clip-path="url(#a)"><path d="M6.62386 4.64576C6.79511 4.47534 7.05899 4.45464 7.25277 4.58326L7.3309 4.64771L7.50179 4.83912C8.29149 5.83133 8.11252 7.3057 7.17953 8.24244L4.7557 10.676C3.75973 11.6758 2.15142 11.8138 1.16879 10.8274C0.187895 9.8424 0.324983 8.23177 1.32015 7.23267L2.53207 6.01587C2.72695 5.82025 3.04346 5.82002 3.2391 6.0149C3.4347 6.20974 3.43583 6.52628 3.24105 6.72193L2.02914 7.93872C1.35122 8.61927 1.35217 9.59546 1.87679 10.1223C2.40007 10.6476 3.36939 10.6498 4.04672 9.96997L6.47054 7.53638C7.10604 6.89839 7.14461 6.00112 6.71468 5.45728L6.62289 5.35279L6.55843 5.27466C6.43063 5.08033 6.45266 4.81629 6.62386 4.64576ZM7.24398 1.32447C8.23995 0.324672 9.84826 0.186647 10.8309 1.1731C11.8118 2.1581 11.6747 3.76873 10.6795 4.76783L9.46761 5.98462L9.11312 5.63111L8.75863 5.27857L9.97054 4.06177C10.6485 3.38122 10.6475 2.40503 10.1229 1.87818C9.59961 1.35287 8.63029 1.3507 7.95297 2.03052L5.52914 4.46411C4.89366 5.10211 4.85508 5.99938 5.285 6.54322L5.37679 6.64771L5.44125 6.72583C5.56905 6.92016 5.54702 7.1842 5.37582 7.35474C5.18016 7.54945 4.86361 7.54837 4.66879 7.35279C3.68784 6.36782 3.82502 4.75719 4.82015 3.75806L7.24398 1.32447ZM9.46761 5.98462C9.27273 6.18022 8.95621 6.18046 8.76058 5.9856C8.56499 5.79076 8.56388 5.47422 8.75863 5.27857L9.46761 5.98462Z" fill="currentColor"/></g><defs><clipPath id="a"><path fill="currentColor" d="M0 0H12V12H0z"/></clipPath></defs></svg>

<svg xmlns="http://www.w3.org/2000/svg" width="12" height="12" fill="currentColor"><g clip-path="url(#a)"><path fill="currentColor" d="M6.624 4.646a.5.5 0 0 1 .707.002c.98.985.844 2.595-.151 3.594l-2.424 2.434c-.996 1-2.605 1.138-3.587.151-.981-.985-.844-2.595.151-3.594l1.212-1.217a.5.5 0 0 1 .709.706L2.029 7.939c-.678.68-.677 1.656-.152 2.183.523.526 1.492.528 2.17-.152L6.47 7.536c.677-.68.677-1.656.152-2.183a.5.5 0 0 1 0-.707m.62-3.322c.996-1 2.604-1.137 3.587-.15.98.984.844 2.595-.151 3.594l-1.21 1.217a.5.5 0 0 1-.71-.706l1.213-1.217c.678-.68.677-1.657.152-2.184-.523-.525-1.493-.527-2.17.153L5.529 4.464c-.678.68-.677 1.657-.152 2.184a.5.5 0 1 1-.708.705c-.981-.985-.844-2.596.151-3.595z"/></g><defs><clipPath id="a"><rect width="12" height="12" fill="currentColor" rx="2"/></clipPath></defs></svg>
